X:1
T:Smieť žiť pre Krista
T:Smieť žiť pre Krista
T:Mária Royová
C:Mária Royová
Z:Mária Royová
%%score { 1 | 2 }
L:1/8
Q:1/2=30
M:4/4
K:Eb
V:1 treble nm="Piano" snm="Pno."
V:2 bass 
V:1
"^\n" [Ec]2 [EG][GB] [FA]2 [CF]2 | [CE]2 [=B,D][B,G] C2 z2 :: [B,G]2 [B,E][EG] [EG]2 [DF]2 | %3
w: Smieť žiť pre Kri- sta,|pre Ne- ho mreť|Hod- no zaň tr- peť,|
w: ó, to je bla- ho,|nad kto- ré niet||
 [CA]2 [=EG][Ec] [EG]2 [FF]2 | [Ge]2 [Gd][Gc] [FA]2 [DF]2 | [CE]2 [=B,E][B,G] [CC]2 z2 :| %6
w: hod- no bo- jo vať,|ach, hod- no ce- le|o- pus- tuť svet!|
w: |||
V:2
 [C,G,]2 [C,C][C,C] [F,C]2 [F,A,]2 | [G,G,]2 [G,,G,][G,,G,] [C,E,]2 z2 :: %2
 [E,E,]2 [E,G,][E,B,] [B,,B,]2 [B,,B,]2 | [F,C]2 [C,C][C,C] [C,B,]2 [F,A,]2 | %4
 [C,C]2 [D,=B,][E,C] [F,C]2 [F,A,]2 | [G,G,]2 [G,,G,][G,,G,] [C,E,]2 z2 :| %6

